X:1
T:By the river Aora
M:6/8
L:1/8
Q:80
C:Trad.
S:Slow Air
K:HP
[| {gef}e3{A}e2{g}B | \
{Gdc}d2B{g}A2B | \
{Gdc}d3{g}d2B |
{g}G2A{g}B{Gdc}d2 | \
{gef}e3{A}e2d | \
e{g}A2{GAG}A2G |
{g}A2{d}B{gf}g2{e}f | \
{g}fe2{A}e2|] [ | \
{gf}g |
{ag}a2g{a}e2d | \
g{a}e2{A}e2{g}B | \
{Gdc}d2B{g}A2B |
{Gdc}d2{g}B{GdG}B2{gf}g | \
{ag}a2g{a}e2g | \
{a}e3/2d/2{e}B{G}A2G |
{g}A2{d}B{gf}g2{e}f | \
{g}fe2{A}e2|]
